X:1
T:The Well-Tempered Clavier Book I - XX
T:BWV 865    (A = 415 Hz)
T:J. S. Bach
%%score { ( 1 3 4 ) | ( 2 5 6 7 ) }
L:1/8
Q:1/4=132
M:9/8
K:C
V:1 treble 
V:3 treble 
V:4 treble 
V:2 bass 
V:5 bass 
V:6 bass 
V:7 bass 
V:1
"^Allegro""^Praeludium" A/B/ce cAE Ace | B/c/df dB^G Bdf | d/e/f^g fdB dfg | ag/f/e/d/ c z z4 | %4
 g3 z2 z4 | c3- c/B/c/B/c/B/ c/g/^f/e/^d/e/ | ^d3- d/e/^f/e/f/e/ f/e/d/f/B/A/ | G3- GEG Be^A | %8
 g3- g/^f/g/f/g/f/ g/=f/e/d/^c/B/ | f3- f/e/f/e/f/e/ f/e/d/c/B/A/ | e3- e/d/e/d/e/d/ c/g/f/e/d/c/ | %11
 B/e/d/c/B/A/ G/c/B/A/G/F/ E/A/G/F/E/D/ | E/F/Gc GEC EGc | F/G/Ac AFC FAc | B/c/df dBG Bdf | %15
 e6- e3 | _e3 d3 a z z | _B6- B3 | _B3 A3 e z z | F3- F/E/F/A/d/A/ f/e/d/c/B/A/ | %20
 ^g3- g/a/b/a/g/^f/ e/=f/e/d/c/B/ | A/B/ce cAE e/d/c/B/A/^G/ | A/B/ca ecA a/g/^e/=e/d/^B/ | %23
 f/e/d/c/B/A/ d/c/B/A/^G/^F/ B/A/G/F/E/D/ | E/A/G/F/E/D/ C/F/E/D/C/B,/ A,/D/C/B,/A,/^G,/ | %25
 A,/B,/^C/D/E/F/ GEC _B/C/A/C/G/C/ | F/A/B/^c/d/e/ z z z a/^g/a/g/a/g/ | a6 z2 z | %28
[M:4/4]"^Fuga" z[I:staff +1] A,/^G,/ A,B, CC/B,/ CD | %29
 E/D/C/D/ EF ^G,E,[I:staff -1] z[I:staff +1] A, | B,/C/A,/B,/ C/D/B,/C/ DCB,E | %31
[I:staff -1] z E/^D/ E^F GG/F/ GA | B/A/G/A/ Bc ^DB, z E | ^F/G/E/F/ G/A/F/G/ AGFB | %34
 E^F/^G/ A/B/c/d/ eA G2 | AAGF EcBA | ^Gedc B/c/d/B/ c/B/A/c/ | d/e/f/d/ e2- eA B/c/d- | %38
 dcBA Gedc | B2 z A- AG/^F/ G/A/B/G/ | c2 z B A/G/A/B/ c^F | B/A/c/B/ A/G/^F/G/ Ee/f/ ed | %42
 cc/d/ cB A/B/c/B/ AG | ^fa z e d/c/e/d/ c/B/d/c/ | Bc d/B/A/G/ e/4^f/4e/f/g/ f>g | g4- gg/a/ gf | %46
 e/d/c/d/ e/f/g- g/f/e/f/ g/a/_b/g/ | a>_b g>a f/e/f/g/ aA | d/g/f/e/ f/4e/4f/4e/4f/4e/4d/ d3 e | %49
 f6- f/e/d/c/ | B c2 B c3 _B | A4- A^GAB | E2- E/^F/^G/A/ B/c/B/c/ d2- | d c2 B2 A/^G/ A2- | %54
 A2 ^G2 AA/G/ AB | cc/B/ cd e/d/c/d/ ef | ^GE z A B/c/A/B/ c/d/B/c/ | dcBe A a2 g- | %58
 gc'/b/ a/g/^f/e/ ^dB^cd | e/d/c/B/ c2 Be/^d/ e^f | gg/^f/ ga B4- | B3 e/d/ c/B/A/B/ cB/A/ | %62
 G2 c2- cB/A/ B^c | d4- dc/B/ cd | eA a2- a/^g/a/g/ ab | e3 d/c/ Be/d/ c/B/A/^G/ | A z ^G z A2 z2 | %67
 z8 | z8 | z8 | z c/B/ cd ee/d/ ef | g/f/e/f/ ga BG z c | d/e/c/d/ e/f/d/e/ fedg | %73
 c/B/d/c/ B/A/G/F/ EF/G/ A/B/c/d/ | BA/G/ c4 B2 | ce/f/ ed c^cde | Ad/e/ dc B/c/d/c/ BA | %77
 G2 z2 z4 | EFGD A/B/A/B/ c/4B/4c/4B/4c/4B/4A/4B/4 | %79
 c/d/c/d/ e/4d/4e/4d/4e/4d/4c/4d/4 [de]/d/c/B/ A/G/^F/E/ | z4 z d/e/ dc | BB/c/ BA G/A/B/A/ G^F | %82
 eg z d c/B/d/c/ B/A/c/B/ | GBcG d/e/d/e/ f/4e/4d/4e/4f/4e/4d/4e/4 | f4- fe/f/ ed | %85
 cc/d/ cB A/B/c/B/ AG | fa z e d/c/e/d/ c/B/d/c/ | B3 A- A/B/^G/A/ B2- | %88
 B/c/A/B/ c2- c/d/B/c/ d/c/B/A/ | ^G/B/c/d/ e/f/g- g/a/g/f/ g2- | %90
 g/f/e/f/ g2- g/_b/a/g/ f/e/d/^c/ | d/e/d/e/ f/4e/4f/4e/4f/4e/4d/ d4- | d2 z2 z4 | z8 | %94
 z4 z e/f/ ed | cc/d/ c_B A/B/c/B/ AG | fa z e d/^c/e/d/ c/=B/d/=c/ | B^cdA e4- | %98
 e/^c/d/f/ g2- g/e/f/a/ _b2- | b/g/a/c'/ de/g/ c2- c/F/G/_B/- | %100
 B/_B/A/G/ A/4G/4A/4G/4A/4G/4F/ F2 c2- | c8- | cA _e2- ed c/_B/d/c/ | %103
 _B/c/d/c/ B/A/G/F/ G/A/B/A/ G/F/E/D/ | e4 z e/d/ ef | gg/f/ ga _b/a/g/a/ b/g/a/e/ | %106
 f/e/d/e/ f/d/e/^c/ d/=c/_B/c/ d/B/c/A/ | !fermata![e^g]2 z2 a4- | ae/d/ e^f ^gg/f/ ga | %109
 b/a/^g/a/ bc' ^d2 z e | cB/A/ c/B/A/^G/ A2 z2 | z4 z d/^c/ de | ff/e/ fg a/g/f/g/ a_b | %113
 ^cA z d- d/=c/B/c/ d/e/^f/^g/ | !fermata!a8 |] %115
V:2
 A,,3 A,/^G,/A,/G,/A,/G,/ A,E,C, | A,,3 A,/^G,/A,/G,/A,/G,/ A,F,D, | %2
 A,,3 A,/^G,/A,/G,/A,/G,/ A,F,D, | A,,3 z AE CA,^D | E,/^F,/G,B, G,E,B,, E,G,B, | %5
 ^F,/G,/A,C A,F,^D, F,A,C | A,/B,/C^D CA,^F, A,CD | EE,/^F,/G,/A,/ B, z z4 | %8
[I:staff -1] E/^F/GB GEB, ^CEA | D/E/FA FDA, B,DG | C/D/EG ECG, A,CF | %11
[I:staff +1] G,B,D FDB, G,B,G, | C3- C/A,/G,/F,/E,/D,/ C,/D,/E,/F,/G,/E,/ | %13
 A,3- A,/C,/D,/E,/F,/G,/ A,/G,/F,/E,/D,/C,/ | D,3- D,/E,/D,/C,/B,,/A,,/ G,,/A,,/G,,/F,,/E,,/D,,/ | %15
 C,, z z E/D/C/B,/C/G,/ E,/G,/F,/E,/D,/C,/ | ^F,F,F, F,F,F, F,F,F, | %17
 G, z z _B,/A,/G,/^F,/G,/D,/ _B,,/D,/C,/B,,/A,,/G,,/ | ^C,C,C, C,C,C, C,C,C, | %19
 D,/E,/F,A, F,D,A,, D,F,A, | D,/E,/F,^G, F,D,B,, D,F,G, | C,3 A,/^G,/A,/G,/A,/G,/ A,E,C, | %22
 F,,3 A,/^G,/A,/G,/A,/G,/ A,B,C | D,E,F, B,,C,D, ^G,,A,,B,, | C,,3- C,,C,D, E,D,E, | %25
 A,,3- A,,/B,,/^C,/D,/E,/F,/ G,F,E, | D,3- D,/A,/B,/^C/D/E/ FED | E6 z2 z |[M:4/4] z8 | z8 | z8 | %31
 A,2 G,^F, E,CB,A, | G,/^F,/E,/F,/ G,A, B,/A,/G,/A,/ B,C- | CB,/A,/ B,E- ED/^C/ D2- | %34
 DC/B,/ C2- C/A/G/F/ E/D/C/B,/ | z A,,/^G,,/ A,,B,, C,C,/B,,/ C,D, | %36
 E,/D,/C,/D,/ E,F, ^G,,E,, z A,, | B,,/C,/A,,/B,,/ ^C,/D,/B,,/C,/ D,=C,B,,E, | %38
 z E,/^D,/ E,^F, G,G,/F,/ G,A, | B,/A,/G,/A,/ B,C ^D,B,, z E, | %40
 ^F,/G,/E,/F,/ G,/A,/F,/G,/ A,G,F,B, | E,2 B,A, ^G,E,^F,G, | A, z z2 z A,B,^C | D z z2 z B, A,2 | %44
 G,4- G, A,2 D,- | D,[K:treble]G/A/ GF EE/F/ ED | C/D/E/D/ C_B, A^c z G | %47
 F/E/G/F/ E/D/F/E/ DE F/E/D/C/ |[K:bass] _B,A,/G,/ A,2- A,A,=B,^C | D z z2 z4 | %50
 G,/F,/A,/G,/ F,/E,/G,/F,/ E,F, G,/E,/D,/C,/ | z4 z B,/C/ B,A, | ^G,3 E, D,F,/E,/ D,C, | %53
 B,,C,D,B,, E,3 F,- | F,D,E,D, C, z z2 | z A,/^G,/ A,B, CC/B,/ CD | %56
 E,A,/G,/ F,/E,/D,/C,/ B,,C/B,/ A,/=G,/F,/E,/ | B,/C/A,/B,/ C/D/B,/C/ DCB,E | A,4- A,G,/^F,/ G,A, | %59
 B, E2 ^D E z z2 | B,/A,/G,/A,/ B,C ^D,B,, z E, | ^F,/G,/E,/F,/ G,/A,/F,/G,/ A,G,F,B, | %62
 E,E,/^D,/ E,^F, G,4- | G,^F,/E,/ F,^G, A, z z2 | CC/B,/ CD E/D/C/D/ EF | %65
 ^G,E, z A, B,/C/A,/B,/ C/D/B,/C/ | DCB,E A,3 G,- | G,F,/E,/ F,2- F,E,/D,/ E,2- | %68
 E,2 D,2- D,/C,/D,/E,/ F,/G,/A,/B,/ | C4- C2- C/E/D/C/ | B,E/D/ C/B,/A,/B,/ C4- | C G,2 D- DEDC | %72
 G,2 z z4 G, | A,/B,/G,/A,/ B,/C/A,/B,/ CB,A, z | G,3 C D/F,/G,/A,/ B,/C/D/B,/ | G,2 z2 z4 | %76
 z A,/_B,/ A,G, F,F,/G,/ F,E, | D,/E,/F,/E,/ D,C, B,D z A, | G,/F,/A,/G,/ F,/E,/G,/F,/ E,F,G,D, | %79
 A,/B,/A,/B,/ C/4B,/4C/4B,/4C/4B,/4A,/4B,/4 C4- | C^F,G,A, B,D,E,F, | G,3 A, B,4- | %82
 B,E,^F,G, A,D, E,D,/E,/ | ^F,/G,/E,/F,/ G,/A,/F,/G,/ A,B,/C/ B,/C/A,/B,/ | CD/E/ DC B,^G,A,B, | %85
 CE,^F,^G, A,2 z E, | F,G,A,_B, A,^G,/^F,/ E,A, | F, E,2 F,/^D,/ E,4- | E,8- | %89
 E, z z2 z E,/F,/ E,D, | ^C,C,/D,/ C,_B,, A,,2 z F/E/ | D3 ^C DA, z2 | z A,/^G,/ A,B, CC/B,/ CD | %93
 E/D/C/D/ EF ^G,E, z A, | B,/C/A,/B,/ C/D/B,/^C/ D=CB,E | A,2 z2 z A,/_B,/ CB, | %96
 A,[K:treble]D/E/ F/G/ A2 G2 F- | FE D2- D/^C/E/D/ C/B,/D/C/ | D2- D/B,/^C/E/ F2- F/D/E/G/ | %99
 A2- A/F/G/_B/ EF _B,2 |[K:bass] C4- CC,D,E, | F,E,F,G, A,/G,/^F,/G,/ A,/_B,/C | %102
 ^F,A,G,F, G,=F,^D,^C,- | C,G,/A,/ G,F, E,E,/F,/ E,D, | ^C,/D,/E,/D,/ C,B,, A,^C z A | %105
[I:staff -1] _B>[I:staff +1]A G/F/E/D/ ^C2 z C | DFDA, ^A,F,A,D | [B,F]2 z2 C2 z2 | C2 z2 B,2 z2 | %109
 z B,/C/[I:staff -1] D/E/^F/^G/[I:staff +1] A,2 z B, | %110
 CDCB, A,A,/[I:staff -1]_B,/[I:staff +1] A,G, | F,F,/G,/ F,E, D,/E,/F,/E,/ D,^C, | %112
[I:staff -1] D[I:staff +1]A,/B,/ ^CD E2 z D | E,2 z D, B,4 | A,8 |] %115
V:3
 x9 | x9 | x9 | x9 | e3 z2 z4 | A3 z2 z4 | [^FAc]3 z2 z4 | x9 | [Be]3 z2 z4 | [Ad]3 z2 z4 | %10
 [Gc]3 z2 z4 | x9 | x9 | x9 | x9 | z2 c- c3- c3 | z/ A/_B/c/B/A/ z/ A/B/c/B/A/ z/ A/B/c/B/A/ | %17
 z2 G- G3- G3 | z/ E/F/G/F/E/ z/ E/F/G/F/E/ z/ E/F/G/F/E/ | x9 | x9 | x9 | x9 | x9 | x9 | x9 | %26
 z3 fdB- B3 | e6 z2 z |[M:4/4] x8 | x8 | x8 | x8 | x8 | x8 | x8 | C/B,/ C2 D E/D/ E2 F- | %36
 F/^F/E/F/ ^GA B2 z A | G2- G/F/E/G/ ^F2 ^G2 | AAG^F EcBA | G/^F/E/F/ GF- FE/^D/ E2- | %40
 EA/^D/ E4- ED | E3 ^D E z z2 | z E^FG A z z2 | z DE^F G z z2 | z4 z d/e/ dc | BB/c/ BA G2 AB | %46
 c2 z ^c>d z e2- | e/^c/d- d/B/c d2 z F | G/^c/d/e/ c2 dA/ _B/ AG | FABc d/c/B/A/ GF- | %50
 FE D2 z/ A/G/F/ EG- | GF/G/ FE DD/E/ DC | B,/C/D/C/ B,A, ^GB z =F | %53
 E/D/F/E/ D/C/E/D/ CD E/C/B,/A,/ | F/D/E/F/ B,>A, A, z z2 | x8 | %56
 E/D/C/D/ EF[I:staff +1] ^G,E,[I:staff -1] z[I:staff +1] A, | x8 |[I:staff -1] z4 z E/^D/ E^F | %59
 GG/^F/ GA B/A/G/A/ Bc | %60
[I:staff +1] ^DB,[I:staff -1] z[I:staff +1] E[I:staff -1] ^F/G/E/F/ G/A/F/G/ | AG^FB E3 ^D | %62
 Ec/B/ A/G/^F/E/ DG/=F/[I:staff +1] E/D/^C/B,/ | A,[I:staff -1]d/c/ B/A/^G/^F/ E2 A2 | %64
 z A/^G/ AB cc/B/ cd | e/d/c/d/ ef ^GE z A | B/c/A/B/ c/d/B/c/ dcBe | A2- A/f/d/B/ G2- G/e/c/A/ | %68
 FG/A/ G/F/E/F/ E4- | E/D/E/F/ G/A/B/c/ D/E/D/E/ F2- | F/A/G/F/ EG G4- | GcBA GGFE | %72
 D/G/A/B/ c4 B_B | A z z2 z2 z D- | D/E/C/D/ E/F/D/E/ FEDG | %75
 E/F/[I:staff +1]E/D/ C/B,/A,/^G,/ A,[I:staff -1]A/_B/ AG | FF/G/ FE D/E/F/E/ DC | %77
 Bd z A G/F/A/G/ F/E/G/F/ | x8 | x8 | ^FDEF GFGA | D3 ^D EE/D/ E z | z GAB c G2 ^F/G/ | G z z2 z4 | %84
 z/ e/d/c/ B/A/^G/A/ B4- | BE/F/ ED C[I:staff +1]C/D/ C_B, | %86
[I:staff -1] A,/B,/^C/B,/ A,G, ^FB z E | D/C/E/D/ C/B,/D/C/ B,C D/C/E/D/ | CD E/D/F/E/ DE F2- | %89
 FE z z/ _B/ A2- A/^c/e/d/ | e2- e/A/^c/d/ e/c/d z2 | F_BAG- GF/E/ F/G/A/F/ | D2 z2 z4 | x8 | x8 | %95
 z A/B/ AG FF/G/ FE | D/E/F/E/ D^C _Bd z A | G/F/A/G/ F/E/G/F/ EF G2 | F2 EA- A/^c/d G=c- | %99
 cf _B2- B/G/A/c/ D2 | E F2 E Fc/d/ c_B | AA/_B/ AG ^F/G/A/G/ =F_E | d^f z c _B/A/c/B/ A/G/B/A/ | %103
 G z z2 x4 | z A/G/ AB ^cc/B/ cd | e/d/^c/d/ ef GE z A | AdAG FDFF | B2 z2 z A/^G/ AB | %108
 cc/B/ cd e/d/c/d/ e=f | ^GE z A F2 z E | EFED ^C2 z E | A,A/B/ AG FF/G/ FE | z A/G/ AB ^cc/B/ cd | %113
 e/d/^c/d/ ef ^G2 z d- | de/f/ ed !fermata!^c4 |] %115
V:4
 x9 | x9 | x9 | x9 | B3 e/^d/e/d/e/d/ e/B/A/G/^F/E/- | E3 z2 z4 | x9 | x9 | x9 | x9 | x9 | x9 | %12
 x9 | x9 | x9 | z/ d/c/B/c/G/ G3- G3 | x9 | z/ A/G/^F/G/D/- D3- D3 | x9 | x9 | x9 | x9 | x9 | x9 | %24
 x9 | x9 | x9 | ^c6 z2 z |[M:4/4] x8 | x8 | x8 | x8 | x8 | x8 | x8 | x8 | x8 | x8 | x8 | x8 | x8 | %41
 x8 | x8 | x8 | x8 | x8 | x8 | x8 | x8 | x8 | x8 | x8 | x8 | x8 | x8 | x8 | x8 | x8 | x8 | x8 | %60
 x8 | x8 | x8 | x8 | x8 | x8 | x8 | x8 | x8 | x8 | x8 | x8 | x8 | x8 | x8 | x8 | x8 | x8 | x8 | %79
 x8 | x8 | x8 | x8 | x8 | x8 | x8 | x8 | x8 | x8 | x8 | x8 | x8 | x8 | x8 | x8 | x8 | x8 | x8 | %98
 x8 | x8 | x8 | x8 | x8 | x8 | x8 | x8 | x8 | x8 | x8 | z4 [AB]2 z B | A2 A2 E2 z2 | x8 | x8 | %113
[I:staff +1] G2[I:staff -1] z F/E/ D2 z[I:staff +1] D/E/ |[I:staff -1] z ^c/d/ cB A4 |] %115
V:5
 x9 | x9 | x9 | x9 | x9 | x9 | x9 | x9 | x9 | x9 | x9 | x9 | z3 z3 C,3- | C,6- C,3- | %14
 C,3 C,/ z/ z z4 | x9 | x9 | x9 | x9 | x9 | x9 | x9 | x9 | x9 | x9 | A,,6- A,,3- | %26
 A,,3- A,,/A,/- A,2- A,3- | A,6 z2 z |[M:4/4] x8 | x8 | x8 | x8 | x8 | x8 | x8 | x8 | x8 | x8 | %38
 A,,B,,^C,^D, E,E,/=D,/ E,^F, | G,2 z A, B,B,,/A,,/ G,,E,, | A,,2 B,,2 C,B,, A,,B,,/A,,/ | %41
 G,,A,, B,,2 E,D,C,B,, | A,,B,A,G, ^F,G,F,E, | D,E,D,C, B,, G,2 ^F, | %44
 G,/E,/D,/C,/ B,,E, C,A,,D,D,, | G,,[K:treble] z z2 z4 | x8 | x8 | %48
[K:bass] z A,/_B,/ A,G, F,F,/G,/ F,E, | D,/E,/F,/E,/ D,C, B,D z A, | x8 | %51
 F,/E,/D,/C,/ D,/E,/F,/D,/ B,,2 C,D,- | D,E,D,C, B,,D,/C,/ B,,A,, | ^G,,A,,B,,G,, A,,B,,C,F, | %54
 D,B,,E,E,, A,,A,C,E, | A,,F,E,D, C,A,=G,F, | x8 | D, z E, z F,E,D,E, | C,B,,C,A,, B,,3 A,, | %59
 G,,E,/^D,/ E,^F, G,G,/F,/ G,A, | x8 | x8 | x8 | z4 z A,/^G,/ A,B, | z A,G,F, E,2 z2 | %65
 z A,,/B,,/ C,D,- D,C,/D,/ E,F,- | F,E,/D,/ E,C, F,E,/D,/ E,/F,/E,/D,/ | ^C,A,,D,=C, B,,G,,C,B,, | %68
 A,,B,,/C,/ B,,G,, C,2 z B,, | A,,2 z G,, F,,/G,/F,/E,/ D,/C,/B,,/A,,/ | G,,G,A,F, CC,/B,,/ C,D, | %71
 E,E,/D,/ E,^F, G,/=F,/E,/F,/ G,A, | B,,G,, z C, D,/E,/C,/D,/ E,/F,/D,/E,/ | %73
 F,E,D,G, C,D,/E,/ F,2- | F,2 E,A, D,E,/F,/ G,G,, | C,2 z E, A,,/_B,/A,/G,/ F,/E,/D,/C,/ | %76
 D,6- D,E, | F,4- F,/G,/F,/E,/ D,2- | D, C,2 B,, C,D, G,,2- | G,,A,G,F, E,D,C,E, | %80
 D,D,/E,/ D,C, B,,B,,/C,/ B,,A,, | G,,/A,,/B,,/A,,/ G,,^F,, E,G, z D, | %82
 C,/B,,/D,/C,/ B,,/A,,/D,/C,/ A,,B,,C,G,, | D,2 E,2 ^F,2 G,2 | A,2 B,A, ^G,E,^F,G, | %85
 A,C,D,E, =F,2 z ^C, | D,E,F,^C, D,2 A,,2- | A,,^G,, A,,2 E,,4- | E,,8- | %89
 E,,E,/F,/ E,D, ^C,C,/D,/ C,B,, | A,,/B,,/^C,/B,,/ A,,G,, F,,2 z F, | _B,G, A,2 D,D,/^C,/ D,E, | %92
 F,F,/E,/ ^F,^G, A,/G,/F,/G,/ A,B, | C,A,, z D, E,/F,/D,/E,/ F,/=G,/E,/^F,/ | %94
 G,F,E,A, E,A,- A,/^G,/A,/G,/ | A,2- A,/G,/F,/E,/ F,2- F,/E,/D,/^C,/ | D,[K:treble] z z2 z4 | x8 | %98
 x8 | x8 |[K:bass] z C,/D,/ C,_B,, A,,A,,/B,,/ A,,G,, | F,,/G,,/A,,/G,,/ F,,_E,, D,^F, z C, | %102
 _B,,/A,,/C,/B,,/ A,,/G,,/B,,/A,,/ G,,3 ^F,, | G,,8- | G,,4- G,,E,/F,/ G,/F,/E,/D,/ | %105
 ^C, z z2 z E^CA, | D, z z2 D, z z2 | !fermata!D,2 z2 [^D,A,]2 z2 | [E,A,]2 z2 [E,D]2 z2 | %109
 z4 ^F,2 z ^G, | A,D, E,2 A,,4- | A,,8- | A,,8- | A,,8- | !fermata!A,,8 |] %115
V:6
 x9 | x9 | x9 | x9 | x9 | x9 | x9 | x9 | x9 | x9 | x9 | x9 | x9 | x9 | x9 | x9 | x9 | x9 | x9 | %19
 x9 | x9 | x9 | x9 | x9 | x9 | x9 | x9 | x9 |[M:4/4] x8 | x8 | x8 | x8 | x8 | x8 | x8 | x8 | x8 | %37
 x8 | x8 | x8 | x8 | x8 | x8 | x8 | x8 | x[K:treble] x7 | x8 | x8 |[K:bass] x8 | x8 | x8 | x8 | %52
 x8 | x8 | x8 | x8 | x8 | x8 | x8 | x8 | x8 | x8 | x8 | x8 | x8 | x8 | x8 | x8 | x8 | x8 | x8 | %71
 x8 | x8 | x8 | x8 | x8 | x8 | x8 | x8 | x8 | x8 | x8 | x8 | x8 | x8 | x8 | x8 | x8 | x8 | x8 | %90
 x8 | x8 | x8 | x8 | x8 | x8 | x[K:treble] x7 | x8 | x8 | x8 |[K:bass] x8 | x8 | x8 | x8 | x8 | %105
 x8 | x8 | x8 | x8 | x8 | x8 | x8 | x8 | x8 | FE/D/ EF E4 |] %115
V:7
 x9 | x9 | x9 | x9 | x9 | x9 | x9 | x9 | x9 | x9 | x9 | x9 | x9 | x9 | x9 | x9 | x9 | x9 | x9 | %19
 x9 | x9 | x9 | x9 | x9 | x9 | x9 | x9 | x9 |[M:4/4] x8 | x8 | x8 | x8 | x8 | x8 | x8 | x8 | x8 | %37
 x8 | x8 | x8 | x8 | x8 | x8 | x8 | x8 | x[K:treble] x7 | x8 | x8 |[K:bass] x8 | x8 | x8 | x8 | %52
 x8 | x8 | x8 | x8 | x8 | x8 | x8 | x8 | x8 | x8 | x8 | x8 | x8 | x8 | x8 | x8 | x8 | x8 | x8 | %71
 x8 | x8 | x8 | x8 | x8 | x8 | x8 | x8 | x8 | x8 | x8 | x8 | x8 | x8 | x8 | x8 | x8 | x8 | x8 | %90
 x8 | x8 | x8 | x8 | x8 | x8 | x[K:treble] x7 | x8 | x8 | x8 |[K:bass] x8 | x8 | x8 | x8 | x8 | %105
 x8 | x8 | x8 | x8 | x8 | x8 | x8 | x8 | x8 | z C/B,/ CD !fermata!E4 |] %115

